X: 3012
T: Battle Of Mulroy
R: reel
M: 4/4
K: Aminor
|:cBAc BAGD|EAAG EAAB|cBAc BAGB|d3c BAAB:|
|:BccB ABcd|e2ae gebe|agea gedB|cBAc BAdB:|
|:Aaa^g ae^cA|B3^c dcBc|Aaa^g ae^cA|d^cde ^fef^g|
a2a^g ae^cA|B2B^c dcBd|^cecA G3^F|E^FGA BAAB:|

